X: 9
T: Tobin's Favorite
R: jig
Z: 1997 by John Chambers <jc:trillian.mit.edu>
M: 6/8
L: 1/8
K: D
| "D"DFA dcd | "A7"ecA cde | "D"~fdf "G"~gdg | "A7"ecA    GFE \
| "D"DFA dcd | "A7"ecA cde | "D" faf "A7"gec |     edc "D"d3 :|
|:"D"dfa agf | "A7"efg efg | "D" fef "G" gfg | "A7"ecA    GFE \
| "D"DFA dcd | "A7"ecA cde | "D" faf "A7"gec |     edc "D"d3 :|
%%newpage
%%sep 1 1 500
